X:1
T:Bonny Lizie Bailie
M:4/4
L:1/8
K:F
 F3/2 G/2| A3 G A2 G2| F3 E D2 A2| d3 cd-ef-d| c3-A-F| z F| G2A-B c3 d|\
 c3 A c2 z F| G2 A2 d3 c| A4- G2||
